icons/arrows-out-horizontal.svg

<svg xmlns="http://www.w3.org/2000/svg" width="24" height="24" viewBox="0 0 24 24">
  <path d="M16.363961,7.05025253 C16.7544853,6.65972824 17.3876503,6.65972824 17.7781746,7.05025253 L17.7781746,7.05025253 L22.0336807,11.3059956 C22.0489361,11.3218181 22.0636747,11.3381422 22.0778694,11.3549408 L22.0778694,11.3549408 L22.0985216,11.380114 C22.1063505,11.3900005 22.1139657,11.4000006 22.1213673,11.4101084 L22.1213673,11.4101084 L22.1345418,11.4286785 C22.1388629,11.4348751 22.1431156,11.4411229 22.1474251,11.4474541 C22.1611701,11.4681459 22.174063,11.4892367 22.1861038,11.5106769 L22.1861038,11.5106769 L22.1965428,11.529895 C22.1998811,11.5361511 22.2031549,11.5424469 22.2062114,11.5483589 C22.2157471,11.5671942 22.2246483,11.5862682 22.2330255,11.6058315 C22.2404421,11.6231065 22.247386,11.6406325 22.2537683,11.6582927 C22.2615956,11.6798702 22.2686562,11.7016631 22.274943,11.7233326 C22.2788354,11.7368808 22.2824492,11.7505469 22.2856924,11.7643408 C22.2927376,11.7935203 22.2984541,11.8229552 22.3029311,11.8526681 L22.3029311,11.8526681 L22.3061622,11.8770138 L22.3077311,11.8904959 L22.3077311,11.8904959 L22.3083593,11.9053593 L22.3109822,11.925594 L22.3109822,11.925594 L22.3137085,12 L22.3137048,12.0055091 L22.3065534,12.1202435 L22.3065534,12.1202435 L22.3028418,12.147451 C22.2984541,12.1770448 22.2927376,12.2064797 22.2857776,12.2356757 C22.2824492,12.2494531 22.2788354,12.2631192 22.2749503,12.2763708 C22.2686562,12.2983369 22.2615956,12.3201298 22.253841,12.3416069 C22.247386,12.3593675 22.2404421,12.3768935 22.2329152,12.3944507 L22.2329152,12.3944507 L22.2063632,12.4512185 C22.1990929,12.4655732 22.1914865,12.4797288 22.1835337,12.4938713 C22.1725624,12.5131685 22.1608976,12.5321786 22.1484379,12.5508603 C22.138671,12.5656307 22.1285224,12.5801266 22.1183549,12.5939834 L22.1183549,12.5939834 L22.0811199,12.6411928 L22.0811199,12.6411928 L22.0323593,12.6933593 L22.0713593,12.6513593 L22.0578622,12.6680219 L22.0578622,12.6680219 L22.0336807,12.6940044 L17.7781746,16.9497475 L17.6909538,17.0274538 C17.2984361,17.3382793 16.7265907,17.3123772 16.363961,16.9497475 C15.9734367,16.5592232 15.9734367,15.9260582 16.363961,15.5355339 L16.363961,15.5355339 L18.8989388,13.0005561 L14.4142136,13 L14.2887757,12.9922086 C13.7956987,12.930502 13.4142136,12.5098013 13.4142136,12 C13.4142136,11.4477153 13.8619288,11 14.4142136,11 L14.4142136,11 L18.8989388,10.9994439 L16.363961,8.46446609 L16.2862547,8.37724528 C15.9754292,7.98472763 16.0013313,7.41288223 16.363961,7.05025253 Z M1.9527129,12.5939834 C1.94254537,12.5801266 1.93239686,12.5656307 1.92262988,12.5508603 C1.91017024,12.5321786 1.8985054,12.5131685 1.88753408,12.4938713 L1.87586342,12.4726245 L1.87586342,12.4726245 L1.86470457,12.4512185 C1.85532074,12.4328058 1.84641948,12.4137318 1.83815263,12.3944507 C1.83062571,12.3768935 1.82368177,12.3593675 1.81722677,12.3416069 C1.80947224,12.3201298 1.80241159,12.2983369 1.79611752,12.2763708 C1.79223237,12.2631192 1.78861865,12.2494531 1.78529022,12.2356757 C1.7783302,12.2064797 1.7726137,12.1770448 1.76822596,12.147451 C1.76680906,12.1383409 1.76560109,12.1293108 1.76451446,12.1202435 L1.75736306,12.0055091 L1.75736306,12.0055091 L1.75735931,12 L1.76335931,11.8903593 L1.76135931,11.9033593 L1.76333673,11.8904959 L1.76333673,11.8904959 L1.7649056,11.8770138 L1.7681367,11.8526681 L1.7681367,11.8526681 C1.7726137,11.8229552 1.7783302,11.7935203 1.78537546,11.7643408 C1.78861865,11.7505469 1.79223237,11.7368808 1.79612477,11.7233326 C1.80241159,11.7016631 1.80947224,11.6798702 1.81729948,11.6582927 C1.82368177,11.6406325 1.83062571,11.6231065 1.83804234,11.6058315 C1.84641948,11.5862682 1.85532074,11.5671942 1.8648564,11.5483589 L1.87452499,11.529895 L1.87452499,11.529895 L1.88496406,11.5106769 C1.89700482,11.4892367 1.9098977,11.4681459 1.9236427,11.4474541 C1.92795224,11.4411229 1.93220492,11.4348751 1.93652597,11.4286785 L1.94970055,11.4101084 L1.96096315,11.3950282 L1.96096315,11.3950282 L1.99319841,11.3549408 C2.00739314,11.3381422 2.02213175,11.3218181 2.03738707,11.3059956 C2.04124529,11.3019856 2.04572264,11.2974231 2.05025253,11.2928932 L6.29289322,7.05025253 C6.68341751,6.65972824 7.31658249,6.65972824 7.70710678,7.05025253 C8.06973648,7.41288223 8.0956386,7.98472763 7.78481315,8.37724528 L7.70710678,8.46446609 L5.17212897,10.9994439 L9.65685425,11 C10.209139,11 10.6568542,11.4477153 10.6568542,12 C10.6568542,12.5098013 10.2753691,12.930502 9.78229212,12.9922086 L9.65685425,13 L5.17212897,13.0005561 L7.70710678,15.5355339 C8.09763107,15.9260582 8.09763107,16.5592232 7.70710678,16.9497475 C7.34447708,17.3123772 6.77263169,17.3382793 6.38011403,17.0274538 L6.29289322,16.9497475 L2.04635931,12.7033593 L2.03735931,12.6933593 L2.01320562,12.6680219 L2.01320562,12.6680219 L1.99902216,12.6519338 L1.99902216,12.6519338 L2.03735931,12.6933593 L1.98994788,12.6411928 L1.98994788,12.6411928 L1.9527129,12.5939834 L1.9527129,12.5939834 Z"/>
</svg>

<svg xmlns="http://www.w3.org/2000/svg" viewBox="0 0 24 24">
  <path d="M16.36 7.05a1 1 0 0 1 1.42 0l4.25 4.26a1 1 0 0 1 .05.04l.02.03a1 1 0 0 1 .02.03l.01.02.02.02a1 1 0 0 1 .04.06v.02a1.6 1.6 0 0 1 .06.13 1.04 1.04 0 0 1 .05.2v.05l.01.02v.22a1.04 1.04 0 0 1-.08.24l-.02.06a1.11 1.11 0 0 1-.1.14l-.03.05-.05.05.04-.04-.01.02-.03.02-4.25 4.26-.09.08a1 1 0 0 1-1.33-1.5L18.9 13h-4.61a1 1 0 0 1 .12-2h4.49l-2.54-2.54-.07-.08a1 1 0 0 1 .07-1.33zm-14.4 5.54a1.08 1.08 0 0 1-.07-.1l-.01-.02-.02-.02a.95.95 0 0 1-.1-.33v-.23.01-.05a1.03 1.03 0 0 1 .1-.3l.01-.02.01-.02a1 1 0 0 1 .04-.06l.02-.02.01-.02.01-.01.03-.05a1 1 0 0 1 .06-.06l4.24-4.24a1 1 0 0 1 1.5 1.33l-.08.08L5.17 11h4.49a1 1 0 0 1 .12 2H5.17l2.54 2.54a1 1 0 0 1-1.33 1.49l-.09-.08-4.24-4.25h-.01L2 12.66v-.01l.04.04-.05-.05-.04-.05z"/>
</svg>
